X: 26047
T: McCahill's
R: reel
M: 4/4
K: Dmajor
d2 cd BdAF|EFGA BE E2|Adde fdAF|GBAG FDDA|
dDcD BDAF|EFGA BEEB|Adcd fdAF|GBAG FDDA|
BAGB AF F2|BAGA BcdB|BAGB AFDF|1 GEFD EFGA:|2 GEFD EFGB||
e2 ^ge bege|Be^ge fgaf|e2 ^ge bege|1 a2 ^ga fecf|2 a2 ^ga fece||

